X: 1
T: Splendid Isolation
R: reel
M: 4/4
L: 1/8
K: Gdor
|:FGGF GdcA|G2AG FGAc|dAcA GABc|dggf ~g3a|
bgag fd~d2|f2eg fdcA|G2AG FGAc|dAcA ~G3z:|
|:g2ag fd~d2|gfdc Acdc|AG~G2 Acdc|AG~G2 F4|
FGGF GdcA|G2AG FGAc|dg~g2 fgag|fdcA G4:|


Tune 200	Setting 22939

